packages/amis-editor-core/src/icons/delete-btn.svg

<?xml version="1.0" encoding="UTF-8"?>
<svg viewBox="0 0 14 14" version="1.1" xmlns="http://www.w3.org/2000/svg" xmlns:xlink="http://www.w3.org/1999/xlink"> 
    <path d="M9.25,1.1 C9.44329966,1.1 9.60457492,1.2371128 9.64187342,1.41938605 L9.65,1.5 L9.65,2.653 L12.8,2.653125 C12.9104569,2.653125 13,2.74266805 13,2.853125 L13,3.253125 C13,3.36358195 12.9104569,3.453125 12.8,3.453125 L11.15,3.453 L11.15,10.4974999 C11.15,11.7677548 10.163161,12.8075211 8.91431873,12.891963 L8.75,12.8974999 L5.25,12.8974999 C3.97974508,12.8974999 2.93997876,11.9106609 2.85553687,10.6618186 L2.85,10.4974999 L2.849,3.453 L1.2,3.453125 C1.08954305,3.453125 1,3.36358195 1,3.253125 L1,2.853125 C1,2.74266805 1.08954305,2.653125 1.2,2.653125 L4.349,2.653 L4.35,1.5 C4.35,1.30670034 4.4871128,1.14542508 4.66938605,1.10812658 L4.75,1.1 L9.25,1.1 Z M10.35,3.453 L3.649,3.453 L3.65,10.4974999 C3.65,11.3320635 4.28896152,12.0173897 5.10436739,12.0909612 L5.25,12.0974999 L8.75,12.0974999 C9.58456362,12.0974999 10.2698898,11.4585384 10.3434613,10.6431325 L10.35,10.4974999 L10.35,3.453 Z M4.81646861,4.99747011 L5.21643661,5.00252989 C5.32688472,5.00392711 5.41528793,5.09459567 5.41389071,5.20504378 L5.34937289,10.3050758 C5.34797567,10.4155239 5.25730711,10.5039271 5.146859,10.5025299 L4.746891,10.4974701 C4.63644289,10.4960729 4.54803967,10.4054043 4.5494369,10.2949562 L4.61395472,5.19492421 C4.61535194,5.0844761 4.7060205,4.99607289 4.81646861,4.99747011 Z M6.81646861,4.99747011 L7.21643661,5.00252989 C7.32688472,5.00392711 7.41528793,5.09459567 7.41389071,5.20504378 L7.34937289,10.3050758 C7.34797567,10.4155239 7.25730711,10.5039271 7.146859,10.5025299 L6.746891,10.4974701 C6.63644289,10.4960729 6.54803967,10.4054043 6.5494369,10.2949562 L6.61395472,5.19492421 C6.61535194,5.0844761 6.7060205,4.99607289 6.81646861,4.99747011 Z M8.81646861,4.99747011 L9.21643661,5.00252989 C9.32688472,5.00392711 9.41528793,5.09459567 9.41389071,5.20504378 L9.34937289,10.3050758 C9.34797567,10.4155239 9.25730711,10.5039271 9.146859,10.5025299 L8.746891,10.4974701 C8.63644289,10.4960729 8.54803967,10.4054043 8.5494369,10.2949562 L8.61395472,5.19492421 C8.61535194,5.0844761 8.7060205,4.99607289 8.81646861,4.99747011 Z M8.85,1.9 L5.15,1.9 L5.15,2.653 L8.85,2.653 L8.85,1.9 Z" fill-rule="nonzero"></path>
</svg>

<svg viewBox="0 0 14 14" xmlns="http://www.w3.org/2000/svg"><path d="M9.25 1.1a.4.4 0 0 1 .392.32l.008.08v1.153h3.15c.11 0 .2.09.2.2v.4a.2.2 0 0 1-.2.2h-1.65v7.044a2.4 2.4 0 0 1-2.236 2.395l-.164.005h-3.5a2.4 2.4 0 0 1-2.394-2.235l-.006-.165-.001-7.044H1.2a.2.2 0 0 1-.2-.2v-.4c0-.11.09-.2.2-.2h3.149L4.35 1.5a.4.4 0 0 1 .32-.392l.08-.008h4.5Zm1.1 2.353H3.649l.001 7.044a1.6 1.6 0 0 0 1.454 1.594l.146.006h3.5a1.6 1.6 0 0 0 1.593-1.454l.007-.146V3.453ZM4.816 4.997l.4.006a.2.2 0 0 1 .198.202l-.065 5.1a.2.2 0 0 1-.202.198l-.4-.006a.2.2 0 0 1-.198-.202l.065-5.1a.2.2 0 0 1 .202-.198Zm2 0 .4.006a.2.2 0 0 1 .198.202l-.065 5.1a.2.2 0 0 1-.202.198l-.4-.006a.2.2 0 0 1-.198-.202l.065-5.1a.2.2 0 0 1 .202-.198Zm2 0 .4.006a.2.2 0 0 1 .198.202l-.065 5.1a.2.2 0 0 1-.202.198l-.4-.006a.2.2 0 0 1-.198-.202l.065-5.1a.2.2 0 0 1 .202-.198ZM8.85 1.9h-3.7v.753h3.7V1.9Z"/></svg>
